public/uploads/logo-toyota.svg

<svg width="156" height="112" viewBox="0 0 156 112" fill="none" xmlns="http://www.w3.org/2000/svg">
<path fill-rule="evenodd" clip-rule="evenodd" d="M74.1036 70.5629C68.0671 66.8149 63.6201 53.8802 63.6201 38.5122C63.6201 37.9483 63.6246 37.3925 63.6365 36.8367L63.6438 36.8448C46.8543 34.2291 34.7234 27.0631 34.4127 18.5893L34.3635 18.687C30.2554 23.7478 27.9105 29.5992 27.9105 35.8341C27.9105 54.1805 48.2265 69.213 73.995 70.5426L74.1036 70.5629ZM20.1483 37.1727C20.1483 16.6442 45.919 0 77.7112 0C109.502 0 135.274 16.6442 135.274 37.1727C135.274 57.7011 109.502 74.3458 77.7112 74.3458C45.919 74.3458 20.1483 57.7007 20.1483 37.1727ZM77.7112 5.36478C83.8485 5.36478 89.0688 14.5934 91.0026 27.4701L91.0099 27.4507C102.95 25.6083 111.31 21.3583 111.31 16.4127C111.31 9.77491 96.2654 4.40018 77.7112 4.40018C59.1557 4.40018 44.113 9.77536 44.113 16.4127C44.113 21.3583 52.4715 25.6083 64.4125 27.4507L64.4198 27.4701C66.3537 14.5938 71.5753 5.36478 77.7112 5.36478ZM81.4265 70.5421C107.195 69.213 127.514 54.1801 127.514 35.8336C127.514 29.5992 125.166 23.7478 121.058 18.6865L121.008 18.5888C120.698 27.0627 108.57 34.2287 91.7786 36.8444L91.7859 36.8362C91.7973 37.392 91.8033 37.9478 91.8033 38.5117C91.8033 53.8798 87.353 66.8144 81.3202 70.5625L81.4265 70.5421ZM77.7112 28.427C80.4607 28.427 83.1336 28.3108 85.6911 28.0874L85.6865 28.0915C84.4137 19.837 81.3225 14.0114 77.7103 14.0114C74.0981 14.0114 71.0073 19.837 69.7327 28.0915L69.7282 28.0874C72.2856 28.3108 74.9594 28.427 77.7089 28.427H77.7112ZM77.7112 58.9949C82.3316 58.9949 86.1007 49.4633 86.3019 37.5082L86.3266 37.5168C83.5415 37.7723 80.6606 37.9057 77.7117 37.9057C74.7601 37.9057 71.8819 37.7723 69.0968 37.5168L69.1228 37.5082C69.3208 49.4629 73.089 58.9949 77.7112 58.9949Z" fill="black"/>
<path fill-rule="evenodd" clip-rule="evenodd" d="M77.8812 98.2095C77.8812 90.5933 84.0635 84.419 91.6862 84.419C99.3129 84.419 105.494 90.5931 105.494 98.2095C105.494 105.826 99.3129 112 91.6862 112C84.0635 112 77.8812 105.826 77.8812 98.2095ZM91.6862 106.943C95.9448 106.943 99.3966 103.033 99.3966 98.2095C99.3966 93.3866 95.9448 89.4756 91.6862 89.4756C87.4307 89.4756 83.9795 93.3866 83.9795 98.2095C83.9795 103.032 87.4307 106.943 91.6862 106.943Z" fill="black"/>
<path fill-rule="evenodd" clip-rule="evenodd" d="M121.159 111.374H115.342V90.1648H115.361H107.227V85.3699H129.273V90.1648H121.159V111.374Z" fill="black"/>
<path fill-rule="evenodd" clip-rule="evenodd" d="M136.31 105.523L136.304 105.529L134.073 111.374H127.28L138.02 85.3697H145.259L156 111.374H149.206L146.974 105.529L146.969 105.523H136.31ZM145.301 101.134L145.298 101.135L141.666 91.6176H141.615L137.98 101.135L137.978 101.134H145.301Z" fill="black"/>
<path fill-rule="evenodd" clip-rule="evenodd" d="M13.9326 111.374H8.11562V90.1648H8.1354H0V85.3699H22.0474V90.1648H13.9326V111.374Z" fill="black"/>
<path fill-rule="evenodd" clip-rule="evenodd" d="M23.5351 98.2095C23.5351 90.5933 29.7171 84.419 37.3425 84.419C44.9674 84.419 51.1488 90.5931 51.1488 98.2095C51.1488 105.826 44.9674 112 37.3425 112C29.7171 112 23.5351 105.826 23.5351 98.2095ZM37.3425 106.943C41.5988 106.943 45.0509 103.033 45.0509 98.2095C45.0509 93.3866 41.599 89.4756 37.3425 89.4756C33.0855 89.4756 29.6334 93.3866 29.6334 98.2095C29.6334 103.032 33.0855 106.943 37.3425 106.943Z" fill="black"/>
<path fill-rule="evenodd" clip-rule="evenodd" d="M67.4644 111.374V101.5L77.6123 85.3699H70.8204L64.5149 96.2999L58.2102 85.3699H51.4162L61.5652 101.5V111.374H67.4644Z" fill="black"/>
</svg>

<?xml version="1.0" encoding="utf-8"?>
<!-- Generator: Adobe Illustrator 16.0.0, SVG Export Plug-In . SVG Version: 6.00 Build 0)  -->
<!DOCTYPE svg PUBLIC "-//W3C//DTD SVG 1.1//EN" "http://www.w3.org/Graphics/SVG/1.1/DTD/svg11.dtd">
<svg version="1.1" id="Layer_1" xmlns="http://www.w3.org/2000/svg" xmlns:xlink="http://www.w3.org/1999/xlink" x="0px" y="0px"
	 width="156px" height="112px" viewBox="0 0 156 112" enable-background="new 0 0 156 112" xml:space="preserve">
<path fill="#4D4D4D" d="M74.104,70.563C68.067,66.814,63.62,53.88,63.62,38.512c0-0.564,0.004-1.12,0.017-1.675l0.007,0.008
	c-16.789-2.616-28.92-9.782-29.231-18.255l-0.049,0.098c-4.108,5.061-6.453,10.912-6.453,17.147
	c0,18.347,20.316,33.379,46.084,34.709L74.104,70.563z M20.148,37.173C20.148,16.644,45.919,0,77.711,0
	c31.791,0,57.562,16.644,57.562,37.173c0,20.528-25.771,37.173-57.562,37.173C45.919,74.346,20.148,57.701,20.148,37.173z
	 M77.711,5.365c6.137,0,11.357,9.229,13.291,22.105l0.008-0.02c11.94-1.842,20.301-6.092,20.301-11.038
	c0-6.638-15.045-12.012-33.599-12.012c-18.556,0-33.599,5.375-33.599,12.012c0,4.946,8.359,9.196,20.3,11.038l0.007,0.02
	C66.354,14.594,71.575,5.365,77.711,5.365z M81.426,70.542c25.77-1.329,46.088-16.362,46.088-34.708
	c0-6.234-2.348-12.085-6.455-17.147l-0.051-0.098c-0.31,8.474-12.438,15.64-29.229,18.255l0.007-0.008
	c0.011,0.556,0.017,1.112,0.017,1.676c0,15.368-4.449,28.303-10.482,32.051L81.426,70.542z M77.711,28.427
	c2.75,0,5.422-0.116,7.98-0.339l-0.005,0.004c-1.272-8.254-4.364-14.08-7.976-14.08c-3.612,0-6.703,5.826-7.978,14.08l-0.005-0.004
	c2.558,0.223,5.231,0.339,7.981,0.339H77.711z M77.711,58.995c4.621,0,8.389-9.532,8.59-21.487l0.024,0.008
	c-2.785,0.256-5.666,0.389-8.614,0.389c-2.952,0-5.83-0.133-8.615-0.389l0.026-0.008C69.321,49.463,73.089,58.995,77.711,58.995z"/>
<path fill="#4D4D4D" d="M77.881,98.209c0-7.615,6.182-13.79,13.804-13.79c7.627,0,13.809,6.175,13.809,13.79
	c0,7.617-6.182,13.791-13.809,13.791C84.063,112,77.881,105.826,77.881,98.209z M91.686,106.943c4.26,0,7.711-3.91,7.711-8.734
	c0-4.822-3.451-8.733-7.711-8.733c-4.255,0-7.706,3.911-7.706,8.733C83.979,103.032,87.431,106.943,91.686,106.943z"/>
<path fill="#4D4D4D" d="M121.159,111.374h-5.817V90.165h0.02h-8.135V85.37h22.047v4.795h-8.114V111.374z"/>
<path fill="#4D4D4D" d="M136.311,105.523l-0.006,0.006l-2.231,5.845h-6.794l10.74-26.005h7.239L156,111.374h-6.794l-2.231-5.845
	l-0.006-0.006H136.311z M145.301,101.134l-0.003,0.001l-3.632-9.518h-0.051l-3.635,9.518l-0.002-0.001H145.301z"/>
<path fill="#4D4D4D" d="M13.933,111.374H8.116V90.165h0.02H0V85.37h22.047v4.795h-8.115V111.374z"/>
<path fill="#4D4D4D" d="M23.535,98.209c0-7.615,6.182-13.79,13.807-13.79s13.807,6.175,13.807,13.79
	c0,7.617-6.182,13.791-13.807,13.791S23.535,105.826,23.535,98.209z M37.342,106.943c4.256,0,7.708-3.91,7.708-8.734
	c0-4.822-3.452-8.733-7.708-8.733s-7.709,3.911-7.709,8.733C29.633,103.032,33.085,106.943,37.342,106.943z"/>
<path fill="#4D4D4D" d="M67.464,111.374V101.5l10.148-16.13H70.82L64.515,96.3L58.21,85.37h-6.794l10.149,16.13v9.874H67.464z"/>
</svg>
